X: 32
T:Crested Hens
R:Waltz
C:Chabenat
S:Charles de Lint
Z:Added by Alf Warnock
M:3/4
L:1/8
K:D
|:E3 GFE|B4Bc|dcB edc|dcB AGF|
E3 GFE|B4Bc|dcB AGA|[1 B3 GFD:|[2 B3 zef|
|:gBB ggB|=c4ef|gfa gfe|^d2e2f2|
gBB ggB|=c4ef|gfa gfd|[1 e4ef:|[2 e6|

